X:1
T:Io ardo
T:Simone Molinaro Genovese
T:Source : Canzonette a tre voci---Libro secondo---Venetia---R.Amadino---1600. Editor : André Vierendeels (26/11/16).
T:Notes : Original clefs : C2, C3, C4
T:Io ardo
T:©
T:©
T:©
T:©
C:Simone Molinaro Genovese
Z:©
%%score [ 1 2 3 ]
L:1/8
Q:1/4=86
M:4/4
K:C
V:1 treble nm="Alto 1" snm="A 1"
V:2 treble nm="Alto 2" snm="A 2"
V:3 treble-8 nm="Tenor" snm="T"
V:1
 D8 | F8 | E8 | E4 F2 G2 | A4 G2 G2- | G2 G2 G4 | G2 F2 E4 | E4 A,2 B,C | D2 CB, D2 EF | %9
w: Io|ar-|do|e gli'oc- chi|mie- i Fi-|* di mes-|si del co-|re, sco- pron' o-|gni'hor a voi sco- pron' o-|
 G2 F2 E4- | E2 G4 F2- | F2 E2 D4 | E8 :: A2 A2 A4- | A2 GF E4 | E2 E2 F3 E | D2 G4 F2- | %17
w: gni'hor a voi|_ que- sto|_ mio'ar- do-|re.|E pur las-|* so fin- ge-|te, che non ve-|ne'ac- cor- ge-|
 F2 E2 F4 | z2 A3 A A2 | G2 G2 F4 | E4 z2 E2 | EDEF G2 E2- | EE D2 B,4 | A,2 E2 F2 G2 | A4 z2 E2 | %25
w: * * te,|Fi- li- de|se vo- le-|te, che|que- sta boc- ca mia sco-|* pra'i miei gua-|i, io mi mor-|ron io|
 F2 G2 A2 A,2 | B,2 C2 D4 | z2 B,2 C2 D2 | E4 F2 A2- | A2 A2 G2 F2 | E8 | D8 :| %32
w: mi mor- ro, io|mi mor- ro,|io mi mor-|ro ne li|_ sa- pre- te|ma|i.|
V:2
 z4 A,4- | A,4 D4- | D4 ^C2 B,2 | ^C2 C2 D2 E2 | F4 E2 E2- | E2 D2 E4 | E2 D2 ^C4 | ^C4 =C2 DE | %8
w: Io|_ ar-||do e gli'oc- chi|mie- i Fi-|* di mes-|si del co-|re, sco- pron' o-|
 F2 E2 DB,CD | EB,CD E2 C2 | B,2 E4 D2- | D2 C4 B,2 | C8 :: C2 C2 F4- | F2 ED ^C4 | ^C4 z2 A2 | %16
w: gni'hor, sco- pron o- gni'hor, sco-|pron o- gni'hor a voi que-|sto mio'ar- do-||re.|E pur las-|* so fin- ge-|te, che|
 _B3 B A2 A2 | G4 A4 | z2 F3 F F2 | E2 E2 D4 | ^C4 z2 =C2 | CB,CD E2 C2- | CC A,4 ^G,2 | %23
w: non ve- ne'ac- cor-|ge- te,|Fi- li- de|se vo- le-|te, che|que- sta boc- ca mia sco-|* pra'i miei gua-|
 A,4 z2 E2 | E4 F2 G2 | z2 D2 E2 F2 | G4 z2 B,2 | C2 D2 E2 A,2 | B,2 ^C2 D2 F2 | F2 F2 E2 D2- | %30
w: i, io|mi mor- ro,|io mi mor-|ro, io|mi mor- ro, io|mi mor- ro ne|li sa- pre- te|
 D2 ^CB, C4 | D8 :| %32
w: _ _ _ ma-|i.|
V:3
 D8 | D2 E2 F2 G2 | A8 | A4 d2 c2 | F4 c2 c2- | c2 B2 c4 | c2 d2 A4 | A4 z4 | D2 EF G3 F | %9
w: Io|ar- * * *|do|e gli'oc- chi|mie- i Fi-|* li mes-|si del co-|re,|sco- pron' o- gni'hor, sco-|
 EGAB c2 A2 | E2 E2 F2 F2 | G8 | C8 :: F2 F2 F4 | F2 G2 A4 | A2 A2 d3 c | _B2 B2 c4- | c4 F4 | %18
w: pron o- gni'hor a voi que-|* sto mio'ar- do-||re.|E pur las-|so fin- ge-|te, che non ve-|ne'ac- cor- ge-|* te,|
 z2 F3 F F2 | C2 C2 D4 | A2 A2 AGAB | c4 C4 | C2 D2 E4 | A4 z4 | z2 A2 _B2 c2 | d2 cB A4 | %26
w: Fi- li- de|se vo- le-|te, che que- sta boc- ca|mia sco-|pra'i miei gua-|i,|io mi mor-|* * * ro,|
 z2 E2 F2 G2 | A2 GF E2 F2 | G2 E2 D3 E | FGAB c2 d2 | A8 | D8 :| %32
w: io mi mor-|* * * ro, io|mi mor- ro ne|li sa- pre- te ma- *||i.|

